greater-fortune.svg

<svg width="96" height="128" viewBox="0 0 6 8" xmlns="http://www.w3.org/2000/svg"><path d="m1 0 1 1-2 2 1 1 1-1-2-2m5-1 1 1-2 2 1 1 1-1-2-2m-1 3 1 1-2 2 1 1 1-1-2-2"/></svg>

<svg width="96" height="128" viewBox="0 0 6 8" xmlns="http://www.w3.org/2000/svg"><path d="M1 0 2 1 0 3 1 4 2 3 0 1M5 0 6 1 4 3 5 4 6 3 4 1M3 4 4 5 2 7 3 8 4 7 2 5"/></svg>
